dist/svg/u1F528.svg

<?xml version="1.0" encoding="UTF-8"?><svg id="a" xmlns="http://www.w3.org/2000/svg" viewBox="0 0 40 40"><rect x="0" width="40" height="40" fill="none"/><g><path d="M2.125,27.867L18.499,13.455l4.765,4.745-14.37,16.417c-1.822,2.082-5.024,2.191-6.984,.239h0c-1.962-1.954-1.863-5.16,.215-6.989Z" fill="#4e5968"/><path d="M31.299,11.203l.791,2.05c.252,.652,.791,1.152,1.46,1.354l2.494,.753c.306,.092,.585,.259,.811,.484l2.325,2.316c.425,.424,.427,1.112,.003,1.537l-4.417,4.435c-.424,.425-1.112,.427-1.537,.003l-2.325-2.316c-.227-.226-.394-.504-.488-.809l-.82-2.675c-.28-.914-1.113-1.596-2.069-1.572-2.108,.054-4.767,1.98-4.767,1.98l-4.796-4.777s2.495-3.753,1.35-4.893c-2.774-2.763-11.386-2.042-11.386-2.042l-.178-1.142C21.776-.361,29.653,8.885,30.988,10.646c.13,.172,.233,.356,.311,.558Z" fill="#abb7c7"/></g></svg>

<svg id="Layer_1" data-name="Layer 1" xmlns="http://www.w3.org/2000/svg" viewBox="0 0 40 40"><defs><style>.cls-1{fill:none;}.cls-2{fill:#4e5968;}.cls-3{fill:#abb7c7;}</style></defs><rect class="cls-1" width="40" height="40"/><path class="cls-2" d="M2.125,27.867,18.5,13.455,23.264,18.2,8.894,34.617a4.79,4.79,0,0,1-6.984.239h0A4.79,4.79,0,0,1,2.125,27.867Z"/><path class="cls-3" d="M31.3,11.2l.791,2.05a2.267,2.267,0,0,0,1.46,1.354l2.493.753a1.948,1.948,0,0,1,.812.484L39.18,18.16a1.088,1.088,0,0,1,0,1.538l-4.417,4.435a1.087,1.087,0,0,1-1.537,0L30.9,21.82a1.94,1.94,0,0,1-.488-.809l-.82-2.675a2.163,2.163,0,0,0-2.069-1.572c-2.108.053-4.767,1.979-4.767,1.979l-4.8-4.776s2.494-3.753,1.35-4.893C16.54,6.311,7.928,7.032,7.928,7.032L7.75,5.89c14.026-6.251,21.9,3,23.238,4.756A2.29,2.29,0,0,1,31.3,11.2Z"/></svg>
